SVG-Icons/Technical/Grafana/slider-pc-icon.svg

<svg xmlns="http://www.w3.org/2000/svg" fill="none" viewBox="0 0 40 40"><circle cx="20" cy="20" r="20" fill="#FDC9BE"/><path fill="#FFA593" stroke="#FB755A" stroke-linecap="round" stroke-linejoin="round" stroke-width="1.5" d="M18 15.8c.8 0 1.5-.6 1.5-1.4 0-.8-.7-1.4-1.5-1.4s-1.5.6-1.5 1.4c0 .8.7 1.4 1.5 1.4Z"/><path stroke="#FB755A" stroke-linecap="round" stroke-linejoin="round" stroke-width="1.5" d="M19.5 14.4H27M13.5 14.4h3"/><path fill="#FFA593" stroke="#FB755A" stroke-linecap="round" stroke-linejoin="round" stroke-width="1.5" d="M22.5 21.6c.8 0 1.5-.6 1.5-1.4 0-.8-.7-1.4-1.5-1.4s-1.5.6-1.5 1.4c0 .7.7 1.4 1.5 1.4Z"/><path stroke="#FB755A" stroke-linecap="round" stroke-linejoin="round" stroke-width="1.5" d="M21.1 20.1h-7.6M27.1 20.1h-3M21.8 27.3c.1 1.5.6 3 1.5 4.3h-6c.9-1.3 1.4-2.8 1.5-4.3M15.1 31.6h10.5"/><path stroke="#FFA593" stroke-linecap="round" stroke-linejoin="round" stroke-width="1.5" d="M9.1 24.4h22.5"/><path stroke="#FB755A" stroke-linecap="round" stroke-linejoin="round" stroke-width="1.5" d="M9.1 11.5c0-.8.7-1.5 1.5-1.5h19.5c.8 0 1.5.7 1.5 1.5v14.3c0 .8-.7 1.5-1.5 1.5H10.5c-.8 0-1.5-.7-1.5-1.5V11.5h.1Z"/></svg>

<svg width="40" height="40" viewBox="0 0 40 40" fill="none" xmlns="http://www.w3.org/2000/svg">
<circle cx="20" cy="20" r="20" fill="#FDC9BE"/>
<path d="M18 15.8C18.8 15.8 19.5 15.2 19.5 14.4C19.5 13.6 18.8 13 18 13C17.2 13 16.5 13.6 16.5 14.4C16.5 15.2 17.2 15.8 18 15.8Z" fill="#FFA593" stroke="#FB755A" stroke-width="1.5" stroke-linecap="round" stroke-linejoin="round"/>
<path d="M19.5 14.4H27" stroke="#FB755A" stroke-width="1.5" stroke-linecap="round" stroke-linejoin="round"/>
<path d="M13.5 14.4H16.5" stroke="#FB755A" stroke-width="1.5" stroke-linecap="round" stroke-linejoin="round"/>
<path d="M22.5 21.6C23.3 21.6 24 21 24 20.2C24 19.4 23.3 18.8 22.5 18.8C21.7 18.8 21 19.4 21 20.2C21 20.9 21.7 21.6 22.5 21.6Z" fill="#FFA593" stroke="#FB755A" stroke-width="1.5" stroke-linecap="round" stroke-linejoin="round"/>
<path d="M21.1 20.1H13.5" stroke="#FB755A" stroke-width="1.5" stroke-linecap="round" stroke-linejoin="round"/>
<path d="M27.1 20.1H24.1" stroke="#FB755A" stroke-width="1.5" stroke-linecap="round" stroke-linejoin="round"/>
<path d="M21.8 27.3C21.9 28.8 22.4 30.3 23.3 31.6H17.3C18.2 30.3 18.7 28.8 18.8 27.3" stroke="#FB755A" stroke-width="1.5" stroke-linecap="round" stroke-linejoin="round"/>
<path d="M15.1 31.6H25.6" stroke="#FB755A" stroke-width="1.5" stroke-linecap="round" stroke-linejoin="round"/>
<path d="M9.1 24.4H31.6" stroke="#FFA593" stroke-width="1.5" stroke-linecap="round" stroke-linejoin="round"/>
<path d="M9.1 11.5C9.1 10.7 9.8 10 10.6 10H30.1C30.9 10 31.6 10.7 31.6 11.5V25.8C31.6 26.6 30.9 27.3 30.1 27.3H10.5C9.7 27.3 9 26.6 9 25.8V11.5H9.1Z" stroke="#FB755A" stroke-width="1.5" stroke-linecap="round" stroke-linejoin="round"/>
</svg>
